X: 1
T: Jim Conroy's
M: 6/8
L: 1/8
R: jig
K: Gmaj
ded cAF | GAG FDB | DGB cBc | ded cBc |
dzd cAF | GAG FDB | DGB c2d | cAF G3 :|
GBd g3 | GBd cAF | GBd g2g | (f/g/a)f gdB |
GBd g3  | GBd cAF | DGB c2d | cAF G3 :|
